remix/Business/record-mail-fill.svg

<svg viewBox="0 0 24 24" fill="currentColor" xmlns="http://www.w3.org/2000/svg"><path d="M9.74284 15H14.2572C13.4718 14.0491 13 12.8296 13 11.5C13 8.46243 15.4624 6 18.5 6C21.5376 6 24 8.46243 24 11.5C24 14.5376 21.5376 17 18.5 17H5.5C2.46243 17 0 14.5376 0 11.5C0 8.46243 2.46243 6 5.5 6C8.53757 6 11 8.46243 11 11.5C11 12.8296 10.5282 14.0491 9.74284 15ZM5.5 13C6.32843 13 7 12.3284 7 11.5C7 10.6716 6.32843 10 5.5 10C4.67157 10 4 10.6716 4 11.5C4 12.3284 4.67157 13 5.5 13ZM18.5 13C19.3284 13 20 12.3284 20 11.5C20 10.6716 19.3284 10 18.5 10C17.6716 10 17 10.6716 17 11.5C17 12.3284 17.6716 13 18.5 13Z"/></svg>

<svg viewBox="0 0 24 24" xmlns="http://www.w3.org/2000/svg"><path fill="none" d="M0 0h24v24H0Z"/><path d="M9.74 15h4.51v0c-1.94-2.35-1.61-5.81.74-7.75 2.34-1.94 5.8-1.61 7.74.74 1.93 2.34 1.6 5.8-.75 7.74 -.99.81-2.23 1.25-3.5 1.25h-13 -.001c-3.04-.01-5.5-2.47-5.5-5.51 0-3.04 2.46-5.5 5.5-5.5 3.03 0 5.49 2.46 5.49 5.5 -.01 1.27-.45 2.51-1.26 3.49Zm-4.25-2v0c.82 0 1.5-.68 1.5-1.5 0-.83-.68-1.5-1.5-1.5v0c-.83 0-1.5.67-1.5 1.5 0 .82.67 1.5 1.5 1.5Zm13 0v0c.82 0 1.5-.68 1.5-1.5 0-.83-.68-1.5-1.5-1.5v0c-.83 0-1.5.67-1.5 1.5 0 .82.67 1.5 1.5 1.5Z"/></svg>
